packages/core/src/svgs/networks/mono/clover.svg

<svg width="24" height="24" viewBox="0 0 24 24" fill="none" xmlns="http://www.w3.org/2000/svg">
<path d="M11.2032 8.61162C11.0193 8.61162 10.8702 8.76087 10.8703 8.945L10.8705 10.8942H8.94462C8.76076 10.8942 8.61167 11.0434 8.61167 11.2275V12.8434C8.61167 13.0275 8.76076 13.1767 8.94462 13.1767H10.8702V15.0547C10.8702 15.2387 11.0193 15.388 11.2032 15.388H12.796C12.9799 15.388 13.129 15.2387 13.129 15.0547V13.1054H10.8705V10.8942H13.129L13.1294 13.1767H15.0553C15.2391 13.1767 15.3882 13.0275 15.3882 12.8434V11.2275C15.3882 11.0434 15.2391 10.8942 15.0553 10.8942H13.129V8.94494C13.129 8.76087 12.9799 8.61162 12.796 8.61162H11.2032Z" fill="white"/>
<path fill-rule="evenodd" clip-rule="evenodd" d="M6.79999 2H17.2C19.851 2 22 4.14903 22 6.8V17.2C22 19.8509 19.851 22 17.2 22H6.79999C4.14903 22 2 19.8509 2 17.2V6.8C2 4.14903 4.14903 2 6.79999 2ZM18.3997 11.9999C18.3997 15.5345 15.5343 18.3999 11.9997 18.3999C8.46507 18.3999 5.59969 15.5345 5.59969 11.9999C5.59969 8.46525 8.46507 5.59985 11.9997 5.59985C15.5343 5.59985 18.3997 8.46525 18.3997 11.9999Z" fill="white"/>
</svg>

<svg xmlns="http://www.w3.org/2000/svg" width="24" height="24" fill="none" viewBox="0 0 24 24">
    <path fill="#fff" d="M11.203 8.612a.333.333 0 0 0-.333.333v1.95H8.946a.333.333 0 0 0-.333.332v1.616c0 .184.149.334.333.334h1.925v1.878c0 .184.15.333.333.333h1.593c.184 0 .333-.15.333-.333v-1.95h-2.258v-2.21h2.258v2.282h1.926c.184 0 .333-.15.333-.334v-1.616a.333.333 0 0 0-.333-.333H13.13v-1.95a.333.333 0 0 0-.333-.332z"/>
    <path fill="#fff" fill-rule="evenodd" d="M6.8 2h10.4A4.8 4.8 0 0 1 22 6.8v10.4a4.8 4.8 0 0 1-4.8 4.8H6.8A4.8 4.8 0 0 1 2 17.2V6.8A4.8 4.8 0 0 1 6.8 2m11.6 10a6.4 6.4 0 1 1-12.8 0 6.4 6.4 0 0 1 12.8 0" clip-rule="evenodd"/>
</svg>
